frontend/public/svg/files/file-image-2.svg

<svg width="142" height="174" viewBox="0 0 142 174" fill="none" xmlns="http://www.w3.org/2000/svg">
<g clip-path="url(#clip0)">
<path d="M140.569 100.113C140.683 113.799 140.862 127.483 140.879 141.171C140.886 147.113 140.434 153.051 140.411 158.997C140.38 167.407 133.979 172.527 126.366 172.701C110.203 173.069 94.0338 173.417 77.8695 173.344C60.3525 173.266 42.8354 172.773 25.3231 172.29C20.9497 172.088 16.5929 171.619 12.2764 170.888C7.30658 170.142 2.41157 164.263 2.09194 158.867C1.84646 154.729 1.63249 150.584 1.57605 146.441C1.28463 125.796 1.02522 105.152 0.797689 84.5065C0.544779 62.7391 0.309136 40.9705 0.0907942 19.2007C0.0727933 15.0284 1.16999 10.9266 3.26881 7.32059C4.13677 5.66765 5.436 4.28096 7.02876 3.30692C8.62149 2.33289 10.4482 1.80805 12.3151 1.78851C18.7078 1.51678 25.1189 1.55112 31.4999 1.12319C52.611 -0.291873 73.7175 0.852272 94.8266 0.980258C96.9361 0.938856 99.0318 1.329 100.985 2.12565C102.938 2.9223 104.709 4.10907 106.188 5.61372C113.014 12.1049 120.346 18.0652 127.433 24.2867C130.046 26.5838 132.463 29.104 135.135 31.3244C137.972 33.6826 139.007 36.6664 139.063 40.2086C139.244 51.6508 139.452 63.0928 139.689 74.5348C139.855 83.0619 140.035 91.5877 140.227 100.114L140.569 100.113ZM93.0552 9.44535C91.6979 9.29833 90.8111 9.13293 89.9211 9.11718C74.9927 8.83975 60.0641 8.57551 45.1359 8.32432C38.7419 8.22128 32.3465 8.18229 25.9518 8.14226C22.703 8.12191 19.4448 8.02307 16.2065 8.21406C11.8648 8.46937 10.3054 9.73893 9.73766 14.032C9.27291 18.0287 9.05487 22.0501 9.08461 26.0737C9.05573 29.7675 9.47375 33.4631 9.50328 37.159C9.58598 47.4792 9.58007 57.8001 9.58861 68.1204C9.61223 96.4998 9.63921 124.879 9.6694 153.258C9.66743 154.825 9.87359 156.385 10.2824 157.898C11.3876 161.889 13.6448 163.71 17.7535 164.018C20.1032 164.194 22.4654 164.242 24.8223 164.256C45.0283 164.38 65.2342 164.536 85.4403 164.569C96.218 164.587 106.996 164.378 117.774 164.273C120.129 164.25 122.489 164.329 124.837 164.2C129.31 163.956 131.696 161.574 131.648 157.202C131.589 151.824 131.241 146.451 131.146 141.074C131.05 135.579 131.242 130.077 131.073 124.586C130.688 112.031 129.957 99.4848 129.744 86.9284C129.516 73.696 129.726 60.4564 129.729 47.22C129.706 46.4942 129.645 45.7702 129.548 45.0504C122.168 45.0504 115.105 45.1023 108.045 45.019C105.915 45.0187 103.791 44.7842 101.712 44.3203C97.3345 43.2813 95.9883 41.6201 95.5427 37.1006C95.1561 33.1967 94.8929 29.2803 94.5411 25.3731C94.0685 20.1454 93.5671 14.9212 93.0552 9.44535ZM125.309 35.6604L102.403 14.8922L101.861 15.2864C102.958 22.4299 104.055 29.574 105.18 36.9007L125.309 35.6604Z" fill="black"/>
<path d="M64.2174 149.244C57.1874 149.418 46.1832 149.744 35.1771 149.931C31.5913 150.039 28.0023 149.889 24.4381 149.483C20.481 148.975 19.5431 147.526 19.5661 143.64C19.6718 125.913 19.7269 108.185 19.8614 90.4574C19.8916 86.5351 20.2362 82.6161 20.3137 78.6932C20.3603 76.3363 21.4485 74.7322 23.6322 74.2268C26.7826 73.4963 29.9986 72.7304 33.2081 72.6168C49.4806 72.0379 65.7585 71.4866 82.0396 71.2838C92.9296 71.1479 103.827 71.612 114.721 71.8089C115.395 71.8207 116.07 71.8364 116.741 71.8929C121.672 72.3044 121.683 72.4836 123.204 77.2401C124.87 82.4448 125.323 87.8137 125.523 93.1727C126.247 109.774 125.654 126.406 123.751 142.915C123.35 146.215 122.016 147.783 118.692 148.17C114.463 148.734 110.208 149.076 105.943 149.194C93.3614 149.328 80.7781 149.244 64.2174 149.244ZM80.954 118.599C84.8153 114.672 88.899 110.664 92.8068 106.492C95.4512 103.669 98.3588 102.98 101.923 104.41C106.449 106.122 110.595 108.708 114.121 112.023C114.862 112.745 115.657 113.411 116.894 114.523C117.551 102.14 117.961 90.5296 117.179 78.9387C116.775 78.7923 116.358 78.686 115.932 78.6223C107.4 78.602 98.8629 78.5632 90.3285 78.5967C70.5609 78.6728 50.7931 78.7772 31.0251 78.9098C29.1241 79.0286 27.2309 79.2478 25.353 79.5661C25.5348 89.2799 26.644 98.7364 26.9118 108.225C27.1744 117.66 27.4067 127.095 27.6666 137.088C30.1554 133.697 32.3515 130.745 34.505 127.764C40.6909 119.074 47.3941 110.764 54.5784 102.881C57.2694 99.971 59.6244 99.6277 62.8883 101.857C64.4388 102.967 65.9002 104.197 67.2595 105.533C71.8342 109.848 76.3603 114.209 80.954 118.599ZM31.4839 143.165C33.548 143.165 34.891 143.23 36.226 143.153C41.5935 142.836 46.9537 142.331 52.3252 142.16C62.7426 141.828 73.1653 141.679 83.5853 141.439C84.8369 141.411 86.0859 141.307 87.7589 141.215C79.1064 129.32 69.5344 119.103 58.9542 109.067L31.4839 143.165ZM116.323 140.911C116.573 140.406 116.763 139.872 116.887 139.322C116.775 135.187 116.69 131.056 116.442 126.932C116.302 126.067 115.872 125.275 115.221 124.687C112.153 121.746 109.088 118.789 105.844 116.047C103.516 114.108 100.759 112.754 97.8016 112.098L84.6682 123.921L97.2699 140.911H116.323Z" fill="black"/>
<path d="M87.7176 95.2453C87.7209 98.2296 84.9485 100.877 81.7862 100.908C78.6719 100.938 75.4946 98.2303 75.551 95.5958C75.6167 92.6422 78.9738 89.3914 81.9575 89.398C83.475 89.4754 84.9091 90.1186 85.975 91.2009C87.0415 92.2839 87.6631 93.7265 87.7176 95.2453Z" fill="black"/>
</g>
<defs>
<clipPath id="clip0">
<rect width="141.113" height="173.93" fill="white" transform="translate(0.0810547 0.0107422)"/>
</clipPath>
</defs>
</svg>

<svg xmlns="http://www.w3.org/2000/svg" width="142" height="174" fill="none" viewBox="0 0 142 174"><g fill="#000" clip-path="url(#a)"><path d="M140.569 100.113c.114 13.686.293 27.37.31 41.058.007 5.942-.445 11.88-.468 17.826-.031 8.41-6.432 13.53-14.045 13.704-16.163.368-32.332.716-48.496.643-17.518-.078-35.035-.571-52.547-1.054-4.373-.202-8.73-.671-13.047-1.402-4.97-.746-9.864-6.625-10.184-12.021-.246-4.138-.46-8.283-.516-12.426Q1.14 115.474.798 84.507.418 51.855.09 19.2A23.4 23.4 0 0 1 3.269 7.32a10.34 10.34 0 0 1 9.046-5.532c6.393-.272 12.804-.238 19.185-.666C52.61-.292 73.718.853 94.827.98a15.5 15.5 0 0 1 11.361 4.634c6.826 6.49 14.158 12.451 21.245 18.673 2.613 2.297 5.03 4.817 7.702 7.037 2.837 2.359 3.872 5.342 3.928 8.885q.271 17.163.626 34.326.25 12.79.538 25.579zM93.055 9.445c-1.357-.147-2.244-.312-3.134-.328q-22.392-.415-44.785-.793c-6.394-.103-12.79-.142-19.184-.182-3.249-.02-6.507-.119-9.746.072-4.341.255-5.9 1.525-6.468 5.818a98 98 0 0 0-.653 12.042c-.03 3.693.389 7.39.418 11.085.083 10.32.077 20.641.086 30.961q.035 42.57.08 85.138a17.7 17.7 0 0 0 .613 4.64c1.106 3.991 3.363 5.812 7.471 6.12 2.35.176 4.712.224 7.07.238 20.205.124 40.411.28 60.617.313 10.778.018 21.556-.191 32.334-.296 2.355-.023 4.715.056 7.063-.073 4.473-.244 6.859-2.626 6.811-6.998-.059-5.378-.407-10.751-.502-16.128-.096-5.495.096-10.997-.073-16.488-.385-12.555-1.116-25.101-1.329-37.658-.228-13.232-.018-26.472-.015-39.708a21 21 0 0 0-.181-2.17c-7.38 0-14.443.052-21.503-.031a29 29 0 0 1-6.333-.699c-4.377-1.039-5.724-2.7-6.17-7.22-.386-3.903-.65-7.82-1-11.727-.474-5.228-.975-10.452-1.487-15.928M125.31 35.66l-22.906-20.768-.542.394 3.319 21.615z"/><path d="M64.217 149.244c-7.03.174-18.034.5-29.04.687a75 75 0 0 1-10.739-.448c-3.957-.508-4.895-1.957-4.872-5.843.106-17.727.16-35.455.295-53.183.03-3.922.375-7.84.453-11.764.046-2.357 1.134-3.96 3.318-4.466 3.15-.73 6.367-1.497 9.576-1.61 16.273-.58 32.55-1.13 48.832-1.333 10.89-.136 21.787.328 32.681.525a30 30 0 0 1 2.02.084c4.931.411 4.942.59 6.463 5.347 1.666 5.205 2.119 10.574 2.319 15.933a315 315 0 0 1-1.772 49.742c-.401 3.3-1.735 4.868-5.059 5.255-4.229.564-8.484.906-12.749 1.024-12.582.134-25.165.05-41.726.05m16.737-30.645c3.861-3.927 7.945-7.935 11.853-12.107 2.644-2.823 5.552-3.512 9.116-2.082a36.8 36.8 0 0 1 12.198 7.613c.741.722 1.536 1.388 2.773 2.5.657-12.383 1.067-23.993.285-35.584a6.5 6.5 0 0 0-1.247-.317c-8.532-.02-17.07-.059-25.603-.025q-29.652.114-59.304.313a54 54 0 0 0-5.672.656c.182 9.714 1.291 19.17 1.559 28.659.262 9.435.495 18.87.755 28.863 2.488-3.391 4.685-6.343 6.838-9.324 6.186-8.69 12.89-17 20.073-24.883 2.691-2.91 5.046-3.253 8.31-1.024a37 37 0 0 1 4.372 3.676c4.574 4.315 9.1 8.676 13.694 13.066m-49.47 24.566c2.064 0 3.407.065 4.742-.012 5.368-.317 10.728-.822 16.1-.993 10.417-.332 20.84-.481 31.26-.721 1.25-.028 2.5-.132 4.173-.224-8.653-11.895-18.225-22.112-28.805-32.148zm84.839-2.254c.25-.505.44-1.039.564-1.589-.112-4.135-.197-8.266-.445-12.39a3.85 3.85 0 0 0-1.221-2.245c-3.068-2.941-6.133-5.898-9.377-8.64a19 19 0 0 0-8.042-3.949l-13.134 11.823 12.602 16.99z"/><path d="M87.718 95.245c.003 2.985-2.77 5.632-5.932 5.663-3.114.03-6.291-2.678-6.235-5.312.066-2.954 3.423-6.205 6.406-6.198a6.073 6.073 0 0 1 5.76 5.847"/></g><defs><clipPath id="a"><path fill="#fff" d="M.081.01h141.113v173.93H.081z"/></clipPath></defs></svg>
